_includes/icons/ios-google-sites.svg

<svg fill="#666" height="50" viewBox="0 0 50 50" width="50" xmlns="http://www.w3.org/2000/svg"><path d="m4.984375 5c-1.636719 0-2.984375 1.347656-2.984375 2.984375v34.03125c0 1.636719 1.347656 2.984375 2.984375 2.984375h40.03125c1.636719 0 2.984375-1.347656 2.984375-2.984375v-34.03125c0-1.636719-1.347656-2.984375-2.984375-2.984375zm0 2h40.03125c.554688 0 .984375.429688.984375.984375v3.015625h-42v-3.015625c0-.554687.429688-.984375.984375-.984375zm2.015625 1c-.550781 0-1 .449219-1 1s.449219 1 1 1 1-.449219 1-1-.449219-1-1-1zm3 0c-.550781 0-1 .449219-1 1s.449219 1 1 1 1-.449219 1-1-.449219-1-1-1zm-6 5h42v14h-42zm0 16h20v14h-19.015625c-.554687 0-.984375-.429687-.984375-.984375zm22 0h20v13.015625c0 .554688-.429687.984375-.984375.984375h-19.015625zm-20 2v2h16v-2zm0 4v2h16v-2zm0 4v2h9v-2z"/></svg>

<svg xmlns="http://www.w3.org/2000/svg" viewBox="0 0 50 50" width="50" height="50" fill="#666"><path d="M 4.984375 5 C 3.347656 5 2 6.347656 2 7.984375 L 2 42.015625 C 2 43.652344 3.347656 45 4.984375 45 L 45.015625 45 C 46.652344 45 48 43.652344 48 42.015625 L 48 7.984375 C 48 6.347656 46.652344 5 45.015625 5 Z M 4.984375 7 L 45.015625 7 C 45.570313 7 46 7.429688 46 7.984375 L 46 11 L 4 11 L 4 7.984375 C 4 7.429688 4.429688 7 4.984375 7 Z M 7 8 C 6.449219 8 6 8.449219 6 9 C 6 9.550781 6.449219 10 7 10 C 7.550781 10 8 9.550781 8 9 C 8 8.449219 7.550781 8 7 8 Z M 10 8 C 9.449219 8 9 8.449219 9 9 C 9 9.550781 9.449219 10 10 10 C 10.550781 10 11 9.550781 11 9 C 11 8.449219 10.550781 8 10 8 Z M 4 13 L 46 13 L 46 27 L 4 27 Z M 4 29 L 24 29 L 24 43 L 4.984375 43 C 4.429688 43 4 42.570313 4 42.015625 Z M 26 29 L 46 29 L 46 42.015625 C 46 42.570313 45.570313 43 45.015625 43 L 26 43 Z M 6 31 L 6 33 L 22 33 L 22 31 Z M 6 35 L 6 37 L 22 37 L 22 35 Z M 6 39 L 6 41 L 15 41 L 15 39 Z"/></svg>
